X: 130830
T: Munster Bacon
S: Traditional Irish Music (K.Tweed)
Z: B.Black
L: 1/8
M: 6/8
R: jig
K: D
ABA AFD|dfe d2 c|BdB dAF|GFG EFG|
A^GA DFA|BAB e2 g|faf ede|1 f/e/dc dcB :|2\
fdc dfg||
afd dfa|bge a2 g|faf ged|cA^G AG=G|
FAd cde|def efg|faf ede|1 fdc dfg :|2\
fdc dcB||
